X:1
T:Fortitude (Filby), 10.10.11.11
T:Fortitude (Filby), 10.10.11.11
T:William Charles Filby, 1874
T:Public Domain Courtesy of the Cyber Hymnal™
C:William Charles Filby, 1874
Z:Public Domain
Z:Courtesy of the Cyber Hymnal™
%%score ( 1 2 ) ( 3 4 )
L:1/8
Q:1/4=180
M:4/4
K:G
V:1 treble 
V:2 treble 
V:3 bass 
V:4 bass 
V:1
 [B,D]3 [CE] [B,D]4 | [DB]4 [DG]4 | [CE]4 [DF]2 [EG]2 | [B,D]4 B,4 | [A,D]3 [A,E] D4 | %5
 [Dd]4 [DB]4 | [^CB]4 [CF]2 [CG]2 | [DB]4 [DA]4 | [^DB]4 [DB]3 F | [FA]2 [EG]2 [EG]4 | %10
 [^CB]4 [CA]3 [CE] | [CG]4 [CF]2 [B,G]2 | G4 [=FB]3 [FB] | [Ee]2 [Ed]2 [Ec]4 | [Fc]4 [FB]3 [FA] | %15
 [FA]4 G4 |] %16
V:2
 x8 | x8 | x8 | x4 B,4 | x4 D4 | x8 | x8 | x8 | x7 F | x8 | x8 | x8 | D2 E2 x4 | x8 | x8 | x4 G4 |] %16
V:3
 [G,,D,]3 [G,,D,] [G,,D,]4 | [G,,G,]4 [B,,G,]4 | [C,G,]4 [C,G,]2 [C,G,]2 | G,4 [G,,G,]4 | %4
 [D,F,]3 [D,F,] [B,,F,]4 | [B,,G,]4 [B,,G,]4 | [E,G,]4 [E,G,]2 [E,G,]2 | [D,G,]4 [D,F,]4 | %8
 [B,,F,]4 [B,,B,]3 [^D,B,] | [E,B,]2 [E,B,]2 [E,G,]4 | [A,,E,]4 [A,,A,]3 [A,,A,] | %11
 [D,A,]4 [D,A,]2 G,2 | B,4 [D,G,]3 [D,G,] | [C,G,]2 [C,^G,]2 [C,A,]4 | [D,E]4 [D,D]3 [D,C] | %15
 [D,C]4 [G,,B,]4 |] %16
V:4
 x8 | x8 | x8 | G,4 x4 | x8 | x8 | x8 | x8 | x8 | x8 | x8 | x6 G,2 | =F,2 E,2 x4 | x8 | x8 | x8 |] %16

